X: 5781
T: Caisleán An Óir
R: hornpipe
M: 4/4
K: Adorian
AG|EAAG A2 (3Bcd|edef g2 ab|aged BedB|A3B GEED|
EAAB A2 (3Bcd|edef g2ab|aged BedB|A2 AG A2||
(3Bcd|eaab c'2 ba|agef g2 ab|aged BedB|A3B GEED|
EAAG A2 (3Bcd|edef g2 ab|aged BedB|A2 AG A2||

